outputs/icons/communication/chat_bot_round.svg

<svg xmlns="http://www.w3.org/2000/svg" width="1200" height="1200" fill="none"><path fill="#000" d="M920 200H280c-44 0-80 36-80 80v720l160-160h560c44 0 80-36 80-80V280c0-44-36-80-80-80m0 560H360l-80 80V280h640z"/><path fill="#000" d="M721.895 469.737c26.21 0 47.37-21.158 47.37-47.369S748.105 375 721.895 375s-47.37 21.158-47.37 47.368 21.16 47.369 47.37 47.369m-221.055 0c26.215 0 47.37-21.158 47.37-47.369S527.055 375 500.84 375c-26.208 0-47.366 21.158-47.366 47.368s21.158 47.369 47.366 47.369M611.37 675c73.575 0 136.105-46.105 161.365-110.525H450C475.263 628.895 537.79 675 611.37 675"/></svg>

<svg width="1200" height="1200" viewBox="0 0 1200 1200" fill="none" xmlns="http://www.w3.org/2000/svg"><path d="M920 200H280C236 200 200 236 200 280V1000L360 840H920C964 840 1000 804 1000 760V280C1000 236 964 200 920 200ZM920 760H360L280 840V280H920V760Z" fill="#1D1E23"/><path d="M721.895 469.737C748.105 469.737 769.265 448.579 769.265 422.368C769.265 396.158 748.105 375 721.895 375C695.685 375 674.525 396.158 674.525 422.368C674.525 448.579 695.685 469.737 721.895 469.737ZM500.84 469.737C527.055 469.737 548.21 448.579 548.21 422.368C548.21 396.158 527.055 375 500.84 375C474.632 375 453.474 396.158 453.474 422.368C453.474 448.579 474.632 469.737 500.84 469.737ZM611.37 675C684.945 675 747.475 628.895 772.735 564.475H450C475.263 628.895 537.79 675 611.37 675Z" fill="#1D1E23"/></svg>
